build/category/HeartOutline.svg

<svg xmlns="http://www.w3.org/2000/svg" fill="none" viewBox="0 0 24 24" focusable="false"><path d="M0 0H24V24H0z"/><path fill="#74767B" fill-rule="evenodd" d="M12 5.87542L11.2192 5.28898C10.3921 4.66766 9.36584 4.3 8.25 4.3C5.51619 4.3 3.3 6.51619 3.3 9.25C3.3 11.6588 4.82382 13.8341 6.8458 15.6338C8.79464 17.3684 10.9945 18.5622 12 19.0612C13.0055 18.5622 15.2054 17.3684 17.1542 15.6338C19.1762 13.8341 20.7 11.6588 20.7 9.25C20.7 6.51619 18.4838 4.3 15.75 4.3C14.6342 4.3 13.6079 4.66766 12.7808 5.28898L12 5.87542ZM12 4.24954C10.9554 3.46493 9.65701 3 8.25 3C4.79822 3 2 5.79822 2 9.25C2 15.1855 9.45369 19.2576 11.4908 20.2597C11.8162 20.4197 12.1838 20.4197 12.5092 20.2597C14.5463 19.2576 22 15.1855 22 9.25C22 5.79822 19.2018 3 15.75 3C14.343 3 13.0446 3.46493 12 4.24954Z"/></svg>

<svg xmlns="http://www.w3.org/2000/svg" fill="none" viewBox="0 0 24 24" focusable="false"><path fill="#74767B" fill-rule="evenodd" d="m12 5.87-.79-.59c-.82-.62-1.85-.99-2.96-.99a4.96 4.96 0 0 0-4.96 4.96c0 2.4 1.53 4.58 3.55 6.38 1.95 1.73 4.15 2.93 5.16 3.43 1-.5 3.2-1.7 5.15-3.43 2.02-1.8 3.55-3.98 3.55-6.38 0-2.74-2.22-4.96-4.95-4.96-1.12 0-2.15.37-2.97.99zm0-1.63A6.27 6.27 0 0 0 8.25 3 6.24 6.24 0 0 0 2 9.25c0 5.93 7.45 10 9.49 11 .32.16.69.16 1.01 0 2.04-1 9.5-5.07 9.5-11C22 5.79 19.2 3 15.75 3c-1.41 0-2.71.46-3.75 1.24"/></svg>
